modules/themify-icons/icons/direction-alt.svg

<?xml version="1.0" encoding="utf-8"?>
<!-- Generated by IcoMoon.io -->
<!DOCTYPE svg PUBLIC "-//W3C//DTD SVG 1.1//EN" "http://www.w3.org/Graphics/SVG/1.1/DTD/svg11.dtd">
<svg version="1.1" xmlns="http://www.w3.org/2000/svg" xmlns:xlink="http://www.w3.org/1999/xlink" width="17" height="17" viewBox="0 0 17 17">
<g>
</g>
	<path d="M9 6h4.695l1.938-2.563-1.946-2.437h-4.687v-1h-1v1h-6v5h6v2h-4.687l-1.946 2.437 1.938 2.563h4.695v4h1v-4h6v-5h-6v-2zM3 2h10.206l1.161 1.454-1.169 1.546h-10.198v-3zM14 12h-10.198l-1.169-1.546 1.161-1.454h10.206v3z" fill="#000000" />
</svg>

<svg xmlns="http://www.w3.org/2000/svg" width="17" height="17" viewBox="0 0 17 17"><path d="M9 6h4.695l1.938-2.563L13.687 1H9V0H8v1H2v5h6v2H3.313l-1.946 2.437L3.305 13H8v4h1v-4h6V8H9V6zM3 2h10.206l1.161 1.454L13.198 5H3V2zm11 10H3.802l-1.169-1.546L3.794 9H14v3z"/></svg>
